icon/lg/rocket-chat.svg

<?xml version="1.0" encoding="UTF-8"?>
<svg viewBox="0 0 512 87" version="1.1" xmlns="http://www.w3.org/2000/svg" xmlns:xlink="http://www.w3.org/1999/xlink" preserveAspectRatio="xMidYMid" height="1em" width="1em">
  <g>
    <path d="M27.746048,3.6449495 C30.773504,5.3237975 33.632,7.4480855 36.0768,9.8099415 C40.017408,9.0980055 44.0768,8.7385815 48.19712,8.7385815 C60.529408,8.7385815 72.221952,11.9703255 81.120768,17.8368215 C85.726464,20.8778455 89.39008,24.4833495 92.004096,28.5560535 C94.912768,33.0959575 96.390656,37.9740375 96.3870785,43.2079575 C96.3870785,48.2980055 94.912768,53.1829975 92.000512,57.7195735 C89.386496,61.7958615 85.72288,65.3977815 81.117184,68.4388055 C72.221952,74.3053015 60.529408,77.5334615 48.193536,77.5334615 C44.07296,77.5334615 40.013824,77.1737815 36.073216,76.4621015 C33.628416,78.8237015 30.76992,80.9482455 27.742464,82.6270935 C16.506624,88.2455255 6.608384,86.1496535 1.607168,84.3451095 C-0.03584,83.7522135 -0.539392,81.6670935 0.672256,80.4126935 C4.199424,76.7605975 10.034944,69.5388375 8.60032,62.9749975 C3.023872,57.2631255 0,50.3757015 0,43.0676695 C0,35.8963415 3.023872,29.0089175 8.603904,23.2934615 C10.038528,16.7296215 4.203008,9.5114455 0.67584,5.8593495 C-0.539392,4.6046935 -0.032256,2.5162455 1.610752,1.9230935 C6.611968,0.122133498 16.514048,-1.9734825 27.746048,3.6449495 Z M47.693824,18.3508695 C26.056192,18.3508695 8.514048,29.7026775 8.514048,43.7038295 C8.514048,49.8040535 11.843328,55.4045655 17.394688,59.7793495 C18.958848,64.7652055 18.042112,70.3872215 14.647808,76.6418135 C14.486016,76.9438935 14.334976,77.2457175 14.1696,77.5442135 C17.082112,77.3033175 20.026624,76.5017815 23.007232,75.0387415 C25.0704213,73.8787842 27.0550951,72.4318686 28.789505,70.8310948 L29.256192,70.3908055 L32.643072,67.1232215 C37.277696,68.3704535 42.3616,69.0606295 47.693824,69.0606295 C69.3312,69.0606295 86.873344,57.7124055 86.876928,43.7038295 C86.876928,29.7026775 69.3312,18.3508695 47.693824,18.3508695 Z M168.364288,22.2292695 C174.534144,22.2292695 179.744,24.3105495 183.990016,28.3978455 C188.236288,32.4848855 190.400768,37.6107735 190.400768,43.6211415 C190.400768,49.6279255 188.236288,54.7573975 183.990016,58.8408535 C179.744,62.9281495 174.534144,65.0094295 168.364288,65.0094295 C162.194432,65.0094295 156.984576,62.9281495 152.73856,58.8408535 C148.492288,54.7573975 146.327808,49.6279255 146.327808,43.6211415 C146.327808,37.6107735 148.492288,32.4848855 152.73856,28.3978455 C156.984576,24.3105495 162.194432,22.2292695 168.364288,22.2292695 Z M294.01088,22.4701655 C299.86048,22.4701655 304.5888,24.3932375 308.19584,28.3187415 C311.87968,32.1648855 313.72544,36.9710295 313.72544,42.6578135 C313.72544,43.8584535 313.64608,45.0626775 313.56416,46.1015255 L282.63168,46.1015255 C282.95168,52.5107415 287.68,56.5977815 294.81216,56.5977815 C301.1456,56.5977815 305.95072,55.0773975 309.31712,51.9501015 L309.31712,60.9223895 C305.39008,63.6469975 300.42112,65.0094295 294.4128,65.0094295 C288.08192,65.0094295 282.87488,63.0863575 278.9504,59.3226455 C275.02336,55.4762455 273.1008,50.3503575 273.1008,44.0202455 L273.1008,43.6211415 L273.09568,43.6211415 C273.09568,37.2910295 275.0208,32.1648855 278.94528,28.3187415 C282.87232,24.3932375 287.92064,22.4701655 294.01088,22.4701655 Z M503.104,10.1619415 L503.104,23.4334935 L512,23.4334935 L512,32.1648855 L503.104,32.1648855 L503.104,55.8789335 L511.51872,55.8789335 L511.51872,64.4523735 C510.1568,64.7721175 508.47232,64.9339095 506.54976,64.9339095 C497.81504,64.9339095 493.48608,60.3686615 493.48608,51.2345815 L493.48608,10.1619415 L503.104,10.1619415 Z M330.58816,10.1619415 L330.58816,23.4334935 L339.4816,23.4334935 L339.4816,32.1648855 L330.58816,32.1648855 L330.58816,55.8789335 L339.00032,55.8789335 L339.00032,64.4523735 C337.6384,64.7721175 335.95648,64.9339095 334.03136,64.9339095 C325.2992,64.9339095 320.97024,60.3686615 320.97024,51.2345815 L320.97024,10.1619415 L330.58816,10.1619415 Z M217.40544,22.1429975 C222.61248,22.1501655 226.94144,23.5125975 230.3872,26.2374615 L230.3872,35.8494935 C226.94144,32.5639895 222.77376,30.8815575 217.96608,30.8815575 C214.20288,30.8815575 211.074816,32.0821975 208.59392,34.4870615 C206.10944,36.8919255 204.908544,39.9365335 204.908544,43.5384535 C204.908544,47.1439575 206.10944,50.1885655 208.59392,52.5898455 C211.0784,54.9947095 214.20288,56.1953495 217.96608,56.1953495 C222.85824,56.1953495 227.0208,54.5129175 230.3872,51.2274135 L230.3872,60.8397015 C227.0208,63.5643095 222.6944,64.9267415 217.40544,64.9267415 C211.157504,64.9267415 205.947648,62.9245655 201.701376,58.8372695 C197.45536,54.7502295 195.369984,49.7034455 195.369984,43.5348695 C195.369984,37.3665495 197.45152,32.3195095 201.701376,28.2324695 C205.947648,24.1451735 211.157504,22.1429975 217.40544,22.1429975 Z M379.4944,22.1429975 C384.69888,22.1501655 389.02784,23.5125975 392.4736,26.2374615 L392.4736,35.8494935 C389.02784,32.5639895 384.86016,30.8815575 380.05504,30.8815575 C376.28928,30.8815575 373.16096,32.0821975 370.68032,34.4870615 C368.19712,36.8919255 366.99648,39.9365335 366.99648,43.5384535 C366.99648,47.1439575 368.19712,50.1885655 370.68032,52.5898455 C373.16608,54.9947095 376.28928,56.1953495 380.05504,56.1953495 C384.93952,56.1953495 389.1072,54.5129175 392.4736,51.2274135 L392.4736,60.8397015 C389.1072,63.5643095 384.7808,64.9267415 379.4944,64.9267415 C373.24544,64.9267415 368.03328,62.9245655 363.7888,58.8372695 C359.54176,54.7502295 357.45536,49.7034455 357.45536,43.5348695 C357.45536,37.3665495 359.5392,32.3195095 363.7888,28.2324695 C368.03328,24.1451735 373.24544,22.1429975 379.4944,22.1429975 Z M348.992,53.2155095 C352.18176,53.2155095 354.76736,55.7890775 354.76736,58.9632215 C354.76736,62.1373655 352.18176,64.7111895 348.992,64.7111895 C345.8048,64.7111895 343.2192,62.1373655 343.2192,58.9632215 C343.2192,55.7890775 345.8048,53.2155095 348.992,53.2155095 Z M462.42816,22.5492695 C469.07648,22.5528535 473.96608,25.3568215 475.33056,29.2820695 L475.33056,23.4334935 L484.94336,23.4334935 L484.94336,63.8087895 L475.33056,63.8087895 L475.33056,57.9602135 C473.96608,61.8857175 469.0816,64.6894295 462.42816,64.6894295 C456.7424,64.6894295 451.9296,62.6872535 448.00512,58.6829015 C444.15744,54.5956055 442.23488,49.6315095 442.23488,43.6211415 C442.23488,37.6110295 444.15744,32.6466775 448.00512,28.6387415 C451.9296,24.5514455 456.73728,22.5492695 462.42816,22.5492695 Z M141.038848,22.6319575 C142.16064,22.6319575 143.124224,22.7110615 143.922432,22.8728535 L143.922432,32.1648855 C142.721536,31.9239895 141.358848,31.7660375 139.917056,31.7660375 C133.265408,31.7660375 129.019392,35.9321815 129.019392,42.5822935 L129.019392,63.8123735 L119.48416,63.8123735 L119.48416,23.4334935 L129.019392,23.4334935 L129.019392,29.4402775 C130.942976,25.1947735 135.350784,22.6319575 141.038848,22.6319575 Z M409.14176,10.1619415 L409.14176,29.0411735 C410.98496,25.1950295 415.39072,22.6319575 420.92032,22.6319575 C430.21312,22.6319575 435.66592,28.8002775 435.66592,38.8149975 L435.66592,63.8087895 L426.12992,63.8087895 L426.12992,40.1738455 C426.12992,34.6452695 423.16288,31.2015575 418.0352,31.2015575 C412.8256,31.2015575 409.14176,35.0479575 409.14176,40.5729495 L409.14176,63.8052055 L399.60576,63.8052055 L399.60576,10.1619415 L409.14176,10.1619415 Z M247.05536,10.1619415 L247.05536,40.6556375 L260.67712,23.4299095 L271.57504,23.4299095 L256.2688,42.7369175 L272.85504,63.8052055 L261.63712,63.8052055 L247.05536,45.1381975 L247.05536,63.8052055 L237.51936,63.8052055 L237.51936,10.1619415 L247.05536,10.1619415 Z M168.364288,30.9642455 C164.758016,30.9642455 161.795328,32.1648855 159.389952,34.6488535 C157.067264,37.0537175 155.862784,40.0156375 155.862784,43.6211415 C155.862784,47.2266455 157.06368,50.1885655 159.389952,52.6725335 C161.795328,55.0773975 164.758016,56.2780375 168.364288,56.2780375 C171.891456,56.2780375 174.854144,55.0773975 177.25952,52.6725335 C179.664896,50.1885655 180.865792,47.2230615 180.865792,43.6211415 C180.865792,40.0156375 179.664896,37.0501335 177.25952,34.6488535 C174.854144,32.1648855 171.891456,30.9642455 168.364288,30.9642455 Z M463.70816,31.2842455 C460.26496,31.2842455 457.4592,32.4848855 455.13472,34.8106455 C452.8896,37.1328215 451.76832,40.0983255 451.76832,43.6247255 C451.76832,47.1511255 452.8896,50.1130455 455.13472,52.4352215 C457.45664,54.7573975 460.2624,55.9616215 463.70816,55.9616215 C467.15648,55.9616215 470.12096,54.7573975 472.44288,52.4352215 C474.84928,50.1130455 476.04992,47.1475415 476.04992,43.6247255 C476.04992,40.1019095 474.84928,37.1364055 472.44288,34.8106455 C470.12096,32.4884695 467.15392,31.2842455 463.70816,31.2842455 Z M66.124032,37.8770135 C69.30944,37.8770135 71.898112,40.4505815 71.898112,43.6247255 C71.898112,46.7988695 69.313024,49.3726935 66.124032,49.3726935 C62.934784,49.3726935 60.349696,46.7988695 60.349696,43.6247255 C60.349696,40.4505815 62.934784,37.8770135 66.124032,37.8770135 Z M28.946944,37.8770135 C32.136192,37.8770135 34.72128,40.4505815 34.72128,43.6247255 C34.72128,46.7988695 32.136192,49.3726935 28.946944,49.3726935 C25.757952,49.3726935 23.172864,46.7988695 23.172864,43.6247255 C23.172864,40.4505815 25.757952,37.8770135 28.946944,37.8770135 Z M47.535616,37.8770135 C50.724608,37.8770135 53.309952,40.4505815 53.309952,43.6247255 C53.309952,46.7988695 50.724608,49.3726935 47.535616,49.3726935 C44.346368,49.3726935 41.76128,46.7988695 41.76128,43.6247255 C41.76128,40.4505815 44.346368,37.8770135 47.535616,37.8770135 Z M294.01088,30.6445015 C291.04384,30.6445015 288.48128,31.5251415 286.32064,33.2073175 C284.15488,34.8897495 283.0336,36.8919255 282.87488,39.2967895 L303.94624,39.2967895 C303.94624,36.9746135 302.98624,34.8897495 301.06112,33.2073175 C299.13856,31.5251415 296.81664,30.6445015 294.01088,30.6445015 Z" fill="#F5455C"/>
  </g>
</svg>

<svg width="512" height="87" xmlns="http://www.w3.org/2000/svg" preserveAspectRatio="xMidYMid"><path d="M27.746 3.645a40.143 40.143 0 0 1 8.33 6.165c3.941-.712 8-1.071 12.121-1.071 12.332 0 24.025 3.231 32.924 9.098 4.605 3.04 8.27 6.646 10.883 10.72 2.909 4.539 4.387 9.417 4.383 14.651 0 5.09-1.474 9.975-4.386 14.512-2.615 4.076-6.278 7.678-10.884 10.719-8.895 5.866-20.588 9.094-32.923 9.094-4.121 0-8.18-.36-12.12-1.07a40.152 40.152 0 0 1-8.332 6.164C16.507 88.246 6.608 86.15 1.607 84.345c-1.643-.593-2.146-2.678-.935-3.932C4.2 76.76 10.035 69.539 8.6 62.975 3.024 57.263 0 50.375 0 43.068c0-7.172 3.024-14.06 8.604-19.775C10.039 16.73 4.203 9.511.676 5.86-.54 4.605-.032 2.516 1.61 1.923c5.001-1.8 14.903-3.896 26.135 1.722ZM47.694 18.35c-21.638 0-39.18 11.352-39.18 25.353 0 6.1 3.33 11.7 8.88 16.075 1.565 4.986.648 10.608-2.746 16.863-.162.302-.313.604-.478.902 2.912-.24 5.857-1.042 8.837-2.505a31.103 31.103 0 0 0 5.783-4.208l.466-.44 3.387-3.268c4.635 1.247 9.719 1.938 15.05 1.938 21.638 0 39.18-11.349 39.184-25.357 0-14.001-17.546-25.353-39.183-25.353Zm120.67 3.878c6.17 0 11.38 2.082 15.626 6.169 4.246 4.087 6.41 9.213 6.41 15.223 0 6.007-2.164 11.136-6.41 15.22-4.246 4.087-9.456 6.168-15.626 6.168s-11.38-2.08-15.625-6.168c-4.247-4.084-6.411-9.213-6.411-15.22 0-6.01 2.164-11.136 6.41-15.223 4.247-4.087 9.456-6.169 15.626-6.169Zm125.647.241c5.85 0 10.578 1.923 14.185 5.849 3.684 3.846 5.53 8.652 5.53 14.339 0 1.2-.08 2.405-.162 3.444h-30.932c.32 6.409 5.048 10.496 12.18 10.496 6.334 0 11.139-1.52 14.505-4.648v8.972c-3.927 2.725-8.896 4.087-14.904 4.087-6.331 0-11.538-1.923-15.463-5.686-3.927-3.847-5.85-8.973-5.85-15.303v-.399h-.004c0-6.33 1.925-11.456 5.85-15.302 3.926-3.926 8.975-5.849 15.065-5.849Zm209.093-12.308v13.271H512v8.732h-8.896v23.714h8.415v8.573c-1.362.32-3.047.482-4.97.482-8.734 0-13.063-4.565-13.063-13.7V10.163h9.618Zm-172.516 0v13.271h8.894v8.732h-8.894v23.714H339v8.573c-1.362.32-3.044.482-4.969.482-8.732 0-13.06-4.565-13.06-13.7V10.163h9.617ZM217.405 22.143c5.207.007 9.536 1.37 12.982 4.094v9.612c-3.446-3.285-7.613-4.967-12.42-4.967-3.764 0-6.892 1.2-9.373 3.605-2.485 2.405-3.685 5.45-3.685 9.051 0 3.606 1.2 6.65 3.685 9.052 2.484 2.405 5.609 3.605 9.372 3.605 4.892 0 9.055-1.682 12.421-4.968v9.613c-3.366 2.724-7.693 4.087-12.982 4.087-6.247 0-11.457-2.002-15.704-6.09-4.246-4.087-6.331-9.134-6.331-15.302 0-6.168 2.082-11.215 6.331-15.303 4.247-4.087 9.457-6.089 15.704-6.089Zm162.09 0c5.204.007 9.533 1.37 12.979 4.094v9.612c-3.446-3.285-7.614-4.967-12.419-4.967-3.766 0-6.894 1.2-9.375 3.605-2.483 2.405-3.684 5.45-3.684 9.051 0 3.606 1.201 6.65 3.684 9.052 2.486 2.405 5.61 3.605 9.375 3.605 4.885 0 9.052-1.682 12.419-4.968v9.613c-3.367 2.724-7.693 4.087-12.98 4.087-6.249 0-11.46-2.002-15.705-6.09-4.247-4.087-6.334-9.134-6.334-15.302 0-6.168 2.084-11.215 6.334-15.303 4.244-4.087 9.456-6.089 15.705-6.089Zm-30.503 31.073c3.19 0 5.775 2.573 5.775 5.747s-2.585 5.748-5.775 5.748c-3.187 0-5.773-2.574-5.773-5.748 0-3.174 2.586-5.747 5.773-5.747Zm113.436-30.667c6.648.004 11.538 2.808 12.903 6.733v-5.849h9.612V63.81h-9.612V57.96c-1.365 3.926-6.25 6.73-12.903 6.73-5.686 0-10.498-2.003-14.423-6.007-3.848-4.087-5.77-9.051-5.77-15.062 0-6.01 1.922-10.974 5.77-14.982 3.925-4.088 8.732-6.09 14.423-6.09Zm-321.39.083c1.123 0 2.086.08 2.884.24v9.293c-1.2-.241-2.563-.399-4.005-.399-6.652 0-10.898 4.166-10.898 10.816v21.23h-9.535V23.433h9.535v6.007c1.924-4.245 6.332-6.808 12.02-6.808Zm268.104-12.47v18.88c1.843-3.847 6.249-6.41 11.778-6.41 9.293 0 14.746 6.168 14.746 16.183v24.994h-9.536V40.174c0-5.529-2.967-8.972-8.095-8.972-5.21 0-8.893 3.846-8.893 9.37v23.233h-9.536V10.162h9.536Zm-162.087 0v30.494l13.622-17.226h10.898l-15.306 19.307 16.586 21.068h-11.218l-14.582-18.667v18.667h-9.536V10.162h9.536Zm-78.69 20.802c-3.607 0-6.57 1.2-8.975 3.685-2.323 2.405-3.527 5.367-3.527 8.972 0 3.606 1.2 6.568 3.527 9.052 2.405 2.404 5.368 3.605 8.974 3.605 3.527 0 6.49-1.2 8.896-3.605 2.405-2.484 3.606-5.45 3.606-9.052 0-3.605-1.201-6.57-3.606-8.972-2.406-2.484-5.369-3.685-8.896-3.685Zm295.343.32c-3.443 0-6.249 1.2-8.573 3.527-2.245 2.322-3.367 5.287-3.367 8.814 0 3.526 1.122 6.488 3.367 8.81 2.322 2.322 5.127 3.527 8.573 3.527 3.448 0 6.413-1.205 8.735-3.527 2.406-2.322 3.607-5.287 3.607-8.81 0-3.523-1.2-6.489-3.607-8.814-2.322-2.323-5.29-3.527-8.735-3.527ZM66.124 37.877c3.185 0 5.774 2.574 5.774 5.748 0 3.174-2.585 5.748-5.774 5.748-3.19 0-5.774-2.574-5.774-5.748 0-3.174 2.585-5.748 5.774-5.748Zm-37.177 0c3.19 0 5.774 2.574 5.774 5.748 0 3.174-2.585 5.748-5.774 5.748s-5.774-2.574-5.774-5.748c0-3.174 2.585-5.748 5.774-5.748Zm18.589 0c3.189 0 5.774 2.574 5.774 5.748 0 3.174-2.585 5.748-5.774 5.748-3.19 0-5.775-2.574-5.775-5.748 0-3.174 2.585-5.748 5.775-5.748Zm246.475-7.232c-2.967 0-5.53.88-7.69 2.562-2.166 1.683-3.287 3.685-3.446 6.09h21.071c0-2.322-.96-4.407-2.885-6.09-1.922-1.682-4.244-2.562-7.05-2.562Z" fill="#F5455C"/></svg>
